packages/flat-components/src/components/CloudStorage/CloudStorageFileTitle/icons/audio.svg

<?xml version="1.0" encoding="UTF-8"?>
<svg width="22px" height="22px" viewBox="0 0 22 22" version="1.1" xmlns="http://www.w3.org/2000/svg" xmlns:xlink="http://www.w3.org/1999/xlink">
    <title>invite备份</title>
    <g id="Flat" stroke="none" stroke-width="1" fill="none" fill-rule="evenodd" stroke-linecap="round" stroke-linejoin="round">
        <g id="规范（持续更新）" transform="translate(-1086.000000, -308.000000)" stroke="#6B6ECF">
            <g id="invite备份" transform="translate(1086.000000, 308.000000)">
                <path d="M12.6363636,11.5384615 L9.82629048,11.8158662 C8.19043426,11.9773546 6.76573954,13.0010978 6.09090909,14.5 C5.61226091,15.5631513 6.08609427,16.8130266 7.14924552,17.2916748 C7.29577222,17.3576436 7.44935183,17.4066669 7.60700064,17.4377924 L7.80082606,17.4760605 C9.42477993,17.7966873 11.08953,17.1642083 12.0909091,15.8461538 C13.1193841,14.4924346 13.4403529,12.7292871 12.9549188,11.0999712 L11,4.53846154 L11,4.53846154 L11.8181818,4.26923077 C12.34962,4.09435583 12.9231073,4.09435583 13.4545455,4.26923077 C13.9891733,4.44515533 14.5625428,4.46693655 15.1089767,4.33207946 L16.4545455,4 L16.4545455,4 L17,6.15384615 L16.4309758,6.34108917 C15.7335398,6.57058732 14.9855645,6.59900148 14.2727273,6.42307692 C13.5682209,6.24920837 12.8249291,6.33000295 12.1742333,6.65117969 L12.0909091,6.69230769 L12.0909091,6.69230769" id="路径-33"></path>
            </g>
        </g>
    </g>
</svg>

<svg width="22" height="22" xmlns="http://www.w3.org/2000/svg"><path d="m12.636 11.538-2.81.278A4.591 4.591 0 0 0 6.091 14.5a2.111 2.111 0 0 0 1.516 2.938l.194.038a4.334 4.334 0 0 0 4.29-1.63 5.33 5.33 0 0 0 .864-4.746L11 4.538h0l.818-.269a2.618 2.618 0 0 1 1.637 0 2.996 2.996 0 0 0 1.654.063L16.455 4h0L17 6.154l-.569.187a3.909 3.909 0 0 1-2.158.082 3.076 3.076 0 0 0-2.099.228l-.083.041h0" stroke="#6B6ECF" fill="none" stroke-linecap="round" stroke-linejoin="round"/></svg>
